assets/svg/1F4D3.svg

<svg xmlns="http://www.w3.org/2000/svg" viewBox="0 0 64 64" enable-background="new 0 0 64 64"><g transform="translate(6)"><path d="m.202 57.928c0 0 1.876 7.207 13.602 5.363l1.998-4.825-3.375-3.67-9.338-3.079-2.887 6.211" fill="#34484c"/><path d="m37.57 44.41c0 2.555-1.318 3.225-4.634 4.627l-28.31 11.955c-2.559 0-4.63-2.072-4.63-4.628v-39.787c0-2.556 1.499-3.402 4.63-4.625l28.31-11.957c2.56 0 4.634 2.074 4.634 4.63v39.785" fill="#989897"/><path d="m2.571 60.51c0 0 10.615 3.04 11.233 2.781.619-.261-.397-4.601-.397-4.601l-3.836-4.137-3.572-.166-.627.892-2.801 5.231" fill="#34484c"/><path d="m32.27 2.753l-31.411 13.196 1.475 8.459 4.676.469 15.604-2.515 9.7-5.084 7.142-9.778c-1.562-2.797-3.852-4.532-7.186-4.747" fill="#f4f5f5"/><path d="m9.187 18.878c0-.742.129-1.336.384-1.837-3.214-.299-6.251-1.231-8.466-3.227-.735.678-1.095 1.519-1.095 2.768v39.787c0 2.556 2.07 4.628 4.628 4.628l4.568-1.931c-.013-.132-.021-.268-.021-.404v-39.784z" fill="#34484c"/><path d="m47.565 48.34c0 2.556-1.314 3.227-4.63 4.628l-29.13 10.328c-2.556 0-4.628-2.072-4.628-4.629v-39.784c0-2.557 1.501-3.406 4.628-4.627l29.13-10.327c2.556 0 4.63 2.068 4.63 4.625v39.786z" fill="#c3c3c3"/><path d="m25.984 57.918c-2.555 0-4.625-2.07-4.625-4.626v-39.785c0-1.429.672-1.789 1.63-2.513l-9.185 3.257c-3.126 1.221-4.628 2.07-4.628 4.627v39.784c0 2.557 2.072 4.629 4.628 4.629l29.13-10.328c1.371-.581 2.402-1.037 3.132-1.551l-20.08 6.506" fill="#b4b4b4"/><g fill="#868787"><path d="m35.504 16.06c.121.323-.036.686-.359.811l-15.496 5.974c-.325.122-.687-.036-.81-.36l0 0c-.125-.323.036-.683.361-.809l15.495-5.974c.32-.125.684.037.809.358l0 0"/><path d="m35.504 18.915c.121.323-.036.686-.359.809l-15.496 5.972c-.325.125-.687-.034-.81-.356l0 0c-.125-.323.036-.685.361-.811l15.495-5.972c.32-.125.684.035.809.358l0 0"/><path d="m30.23 23.891c.125.321.045.653-.172.738l-10.583 4.08c-.219.083-.499-.109-.623-.431l0 0c-.125-.323-.045-.653.173-.738l10.583-4.078c.219-.085.501.105.622.429l0 0"/></g></g></svg>

<?xml version="1.0" encoding="UTF-8" standalone="no"?>
<!-- Generator: Adobe Illustrator 16.0.0, SVG Export Plug-In . SVG Version: 6.00 Build 0)  -->

<svg
   xmlns:dc="http://purl.org/dc/elements/1.1/"
   xmlns:cc="http://creativecommons.org/ns#"
   xmlns:rdf="http://www.w3.org/1999/02/22-rdf-syntax-ns#"
   xmlns:svg="http://www.w3.org/2000/svg"
   xmlns="http://www.w3.org/2000/svg"
   xmlns:sodipodi="http://sodipodi.sourceforge.net/DTD/sodipodi-0.dtd"
   xmlns:inkscape="http://www.inkscape.org/namespaces/inkscape"
   version="1.1"
   id="Layer_1"
   x="0px"
   y="0px"
   width="64px"
   height="64px"
   viewBox="0 0 64 64"
   enable-background="new 0 0 64 64"
   xml:space="preserve"
   inkscape:version="0.48.5 r10040"
   sodipodi:docname="1F4D3.svg"
   inkscape:export-filename="D:\TESTINGEMOJI\SVGTEST\1F4D3.png"
   inkscape:export-xdpi="90"
   inkscape:export-ydpi="90"><metadata
   id="metadata41341"><rdf:RDF><cc:Work
       rdf:about=""><dc:format>image/svg+xml</dc:format><dc:type
         rdf:resource="http://purl.org/dc/dcmitype/StillImage" /><dc:title></dc:title></cc:Work></rdf:RDF></metadata><defs
   id="defs41339" /><sodipodi:namedview
   pagecolor="#ffffff"
   bordercolor="#666666"
   borderopacity="1"
   objecttolerance="10"
   gridtolerance="10"
   guidetolerance="10"
   inkscape:pageopacity="0"
   inkscape:pageshadow="2"
   inkscape:window-width="640"
   inkscape:window-height="480"
   id="namedview41337"
   showgrid="false"
   inkscape:zoom="3.6875"
   inkscape:cx="32"
   inkscape:cy="32"
   inkscape:window-x="517"
   inkscape:window-y="393"
   inkscape:window-maximized="0"
   inkscape:current-layer="Layer_1" />
<g
   id="g41315"
   transform="translate(6,0)">
	<path
   d="m 0.202,57.928 c 0,0 1.876,7.207 13.602,5.363 l 1.998,-4.825 -3.375,-3.67 -9.338,-3.079 -2.887,6.211 z"
   id="path41317"
   inkscape:connector-curvature="0"
   style="fill:#34484c" />
	<path
   d="m 37.57,44.415 c 0,2.555 -1.318,3.225 -4.634,4.627 L 4.63,60.997 C 2.071,60.997 0,58.925 0,56.369 V 16.582 C 0,14.026 1.499,13.18 4.63,11.957 L 32.937,0 c 2.56,0 4.634,2.074 4.634,4.63 v 39.785 z"
   id="path41319"
   inkscape:connector-curvature="0"
   style="fill:#989897" />
	<path
   d="m 2.571,60.51 c 0,0 10.615,3.04 11.233,2.781 C 14.423,63.03 13.407,58.69 13.407,58.69 L 9.571,54.553 5.999,54.387 5.372,55.279 2.571,60.51 z"
   id="path41321"
   inkscape:connector-curvature="0"
   style="fill:#34484c" />
	<path
   d="m 32.273,2.753 -31.411,13.196 1.475,8.459 4.676,0.469 15.604,-2.515 9.7,-5.084 L 39.459,7.5 C 37.897,4.703 35.607,2.968 32.273,2.753 z"
   id="path41323"
   inkscape:connector-curvature="0"
   style="fill:#f4f5f5" />
	<path
   d="m 9.187,18.878 c 0,-0.742 0.129,-1.336 0.384,-1.837 C 6.357,16.742 3.32,15.81 1.105,13.814 0.37,14.492 0.01,15.333 0.01,16.582 v 39.787 c 0,2.556 2.07,4.628 4.628,4.628 L 9.206,59.066 C 9.193,58.934 9.185,58.798 9.185,58.662 V 18.878 z"
   id="path41325"
   inkscape:connector-curvature="0"
   style="fill:#34484c" />
	<path
   d="m 47.565,48.335 c 0,2.556 -1.314,3.227 -4.63,4.628 L 13.804,63.291 c -2.556,0 -4.628,-2.072 -4.628,-4.629 V 18.878 c 0,-2.557 1.501,-3.406 4.628,-4.627 L 42.936,3.924 c 2.556,0 4.63,2.068 4.63,4.625 v 39.786 z"
   id="path41327"
   inkscape:connector-curvature="0"
   style="fill:#c3c3c3" />
	<path
   d="m 25.984,57.918 c -2.555,0 -4.625,-2.07 -4.625,-4.626 V 13.507 c 0,-1.429 0.672,-1.789 1.63,-2.513 l -9.185,3.257 c -3.126,1.221 -4.628,2.07 -4.628,4.627 v 39.784 c 0,2.557 2.072,4.629 4.628,4.629 L 42.935,52.963 c 1.371,-0.581 2.402,-1.037 3.132,-1.551 l -20.083,6.506 z"
   id="path41329"
   inkscape:connector-curvature="0"
   style="fill:#b4b4b4" />
	<path
   d="m 35.504,16.064 c 0.121,0.323 -0.036,0.686 -0.359,0.811 l -15.496,5.974 c -0.325,0.122 -0.687,-0.036 -0.81,-0.36 l 0,0 C 18.714,22.166 18.875,21.806 19.2,21.68 l 15.495,-5.974 c 0.32,-0.125 0.684,0.037 0.809,0.358 l 0,0 z"
   id="path41331"
   inkscape:connector-curvature="0"
   style="fill:#868787" />
	<path
   d="m 35.504,18.915 c 0.121,0.323 -0.036,0.686 -0.359,0.809 l -15.496,5.972 c -0.325,0.125 -0.687,-0.034 -0.81,-0.356 l 0,0 c -0.125,-0.323 0.036,-0.685 0.361,-0.811 l 15.495,-5.972 c 0.32,-0.125 0.684,0.035 0.809,0.358 l 0,0 z"
   id="path41333"
   inkscape:connector-curvature="0"
   style="fill:#868787" />
	<path
   d="m 30.234,23.891 c 0.125,0.321 0.045,0.653 -0.172,0.738 l -10.583,4.08 C 19.26,28.792 18.98,28.6 18.856,28.278 l 0,0 c -0.125,-0.323 -0.045,-0.653 0.173,-0.738 l 10.583,-4.078 c 0.219,-0.085 0.501,0.105 0.622,0.429 l 0,0 z"
   id="path41335"
   inkscape:connector-curvature="0"
   style="fill:#868787" />
</g>
</svg>
